; generated by Slic3r 1.2.9 on 2016-12-05 at 07:54:32

; external perimeters extrusion width = 0.50mm
; perimeters extrusion width = 0.72mm
; infill extrusion width = 0.72mm
; solid infill extrusion width = 0.72mm
; top infill extrusion width = 0.72mm

M107
M104 S200 ; set temperature
G28 ; home all axes
G1 Z5 F5000 ; lift nozzle

M109 S200 ; wait for temperature to be reached
G21 ; set units to millimeters
G90 ; use absolute coordinates
M82 ; use absolute distances for extrusion
G92 E0
G1 Z0.500 F7800.000
G1 E-2.00000 F2400.00000
G92 E0
G1 X64.650 Y65.682 F7800.000
G1 E2.00000 F2400.00000
G1 X66.412 Y64.143 E2.14774 F1800.000
G1 X68.587 Y63.281 E2.29548
G1 X69.997 Y63.135 E2.38496
G1 X129.997 Y63.107 E6.17370
G1 X132.303 Y63.503 E6.32144
G1 X134.343 Y64.648 E6.46918 F1800.000
G1 X135.883 Y66.409 E6.61692
G1 X136.746 Y68.584 E6.76466
G1 X136.893 Y70.000 E6.85454
G1 X136.893 Y130.000 E10.64327
G1 X136.496 Y132.306 E10.79101
G1 X135.350 Y134.346 E10.93875
G1 X133.588 Y135.885 E11.08650
G1 X131.413 Y136.746 E11.23424
G1 X130.000 Y136.893 E11.32392
G1 X70.000 Y136.893 E15.11265
G1 X67.694 Y136.496 E15.26039
G1 X65.654 Y135.350 E15.40813
G1 X64.115 Y133.588 E15.55587
G1 X63.254 Y131.413 E15.70361
G1 X63.107 Y130.000 E15.79329
G1 X63.107 Y70.028 E19.58028
G1 X63.504 Y67.722 E19.72802
G1 X64.613 Y65.747 E19.87102
G1 E17.87102 F2400.00000
G92 E0
G1 X95.955 Y129.500 F7800.000
G1 E2.00000 F2400.00000
G1 X92.230 Y129.500 E2.23525 F1800.000
G1 X92.230 Y128.639 E2.28960
G1 X92.171 Y128.142 E2.32121
G1 X95.976 Y128.142 E2.56147
G1 X95.957 Y129.425 E2.64249
G1 X95.524 Y129.248 F7800.000
G1 E0.64249 F2400.00000
G92 E0
G1 X97.448 Y126.670 F7800.000
G1 X97.654 Y126.463 F7800.000
G1 X98.499 Y126.463 F7800.000
G1 X98.499 Y126.670 F7800.000
G1 X99.034 Y127.467 F7800.000
G1 E2.00000 F2400.00000
G1 X98.389 Y127.170 E2.04484 F1800.000
G1 X96.948 Y127.170 E2.13586
G1 X96.948 Y125.757 E2.22510
G1 X100.693 Y125.757 E2.46162
G1 X100.693 Y129.492 E2.69751
G1 X99.365 Y129.472 E2.78140
G1 X99.273 Y128.088 E2.86899
G1 X99.061 Y127.537 E2.90626
G1 X99.116 Y126.974 F7800.000
G1 E0.90626 F2400.00000
G92 E0
G1 X97.448 Y126.670 F7800.000
G1 X95.448 Y124.257 F7800.000
G1 X95.055 Y123.864 F7800.000
G1 E2.00000 F2400.00000
G1 X92.250 Y123.864 E2.17713 F1800.000
G1 X93.035 Y122.425 E2.28066
G1 X93.115 Y121.545 E2.33643
G1 X95.055 Y121.545 E2.45892
G1 X95.055 Y123.789 E2.60060
G1 X95.948 Y122.399 F7800.000
G1 X95.948 Y124.757 E2.74949 F1800.000
G1 X91.230 Y124.757 E3.04740
G1 X91.230 Y127.171 E3.19984
G1 X89.843 Y127.150 E3.28741
G1 X89.843 Y123.010 E3.54878
G1 X90.705 Y123.010 E3.60318
G1 X91.268 Y122.944 E3.63899
G1 X91.859 Y122.717 E3.67896
G1 X92.163 Y122.160 E3.71906
G1 X92.233 Y121.388 E3.76799
G1 X92.128 Y120.653 E3.81490
G1 X100.875 Y120.653 E4.36723
G1 X100.723 Y120.982 E4.39016
G1 X100.701 Y122.399 E4.47962
G1 X96.023 Y122.399 E4.77503
G1 X95.448 Y122.399 F7800.000
G1 E2.77503 F2400.00000
G92 E0
G1 X100.209 Y121.899 F7800.000
G1 X107.381 Y123.356 F7800.000
G1 X107.271 Y123.328 F7800.000
G1 E2.00000 F2400.00000
G1 X108.539 Y123.816 E2.08581 F1800.000
G1 X109.264 Y123.906 E2.13193
G1 X109.264 Y126.249 E2.27988
G1 X106.791 Y126.249 E2.43606
G1 X107.258 Y125.034 E2.51828
G1 X107.337 Y123.891 E2.59062
G1 X107.280 Y123.403 E2.62169
G1 X108.169 Y122.717 F7800.000
G1 X108.758 Y122.944 E2.66155 F1800.000
G1 X109.294 Y123.010 E2.69562
G1 X110.157 Y123.010 E2.75013
G1 X110.157 Y127.142 E3.01103
G1 X105.439 Y127.142 E3.30894
G1 X105.439 Y128.944 E3.42274
G1 X105.377 Y129.472 E3.45631
G1 X104.052 Y129.492 E3.53996
G1 X104.052 Y125.749 E3.77633
G1 X105.480 Y125.727 E3.86652
G1 X106.132 Y125.477 E3.91057
G1 X106.377 Y124.839 E3.95375
G1 X106.441 Y123.913 E4.01236
G1 X106.373 Y123.333 E4.04925
G1 X106.138 Y122.724 E4.09044
G1 X105.504 Y122.431 E4.13456
G1 X104.082 Y122.369 E4.22446
G1 X104.020 Y120.975 E4.31258
G1 X103.735 Y120.358 E4.35550
G1 X103.107 Y120.069 E4.39915
G1 X101.717 Y120.069 E4.48691
G1 X101.524 Y116.557 E4.70899
G1 X101.360 Y115.875 E4.75325
G1 X103.288 Y115.905 E4.87504
G1 X103.108 Y116.772 E4.93097
G1 X103.108 Y117.368 E4.96857
G1 X103.364 Y117.983 E5.01066
G1 X103.980 Y118.239 E5.05275
G1 X105.467 Y118.239 E5.14666
G1 X105.467 Y119.799 E5.24514
G1 X105.828 Y120.366 E5.28759
G1 X106.411 Y120.590 E5.32706
G1 X107.284 Y120.655 E5.38231
G1 X107.889 Y120.579 E5.42084
G1 X107.795 Y121.667 E5.48980
G1 X107.872 Y122.174 E5.52216
G1 X108.133 Y122.651 E5.55651
G1 X108.130 Y123.215 F7800.000
G1 X100.733 Y115.139 F7800.000
G1 X99.540 Y114.907 E5.63324 F1800.000
G1 X99.423 Y114.838 E5.64181
G1 X99.362 Y114.696 E5.65158
G1 X99.362 Y113.579 E5.72213
G1 X100.665 Y113.579 E5.80440
G1 X100.730 Y115.065 E5.89829
G1 X100.331 Y114.842 F7800.000
G1 X102.675 Y116.396 F7800.000
G1 X102.675 Y116.396 F7800.000
G1 X104.052 Y115.155 F7800.000
G1 X104.052 Y111.166 E6.15017 F1800.000
G1 X104.884 Y111.166 E6.20272
G1 X105.311 Y111.213 E6.22982
G1 X105.411 Y111.714 E6.26206
G1 X105.411 Y114.280 E6.42408
G1 X105.292 Y114.898 E6.46383
G1 X104.584 Y115.003 E6.50901
G1 X104.124 Y115.134 E6.53922
G1 X104.261 Y114.700 F7800.000
G1 E4.53922 F2400.00000
G92 E0
G1 X104.868 Y114.455 F7800.000
G1 X104.868 Y114.455 F7800.000
G1 X106.470 Y115.937 F7800.000
G1 E2.00000 F2400.00000
G1 X108.042 Y115.913 E2.09931 F1800.000
G1 X107.884 Y116.467 E2.13569
G1 X107.850 Y117.339 E2.19082
G1 X107.983 Y117.737 E2.21729
G1 X107.242 Y117.656 E2.26432
G1 X106.193 Y117.734 E2.33075
G1 X106.376 Y117.338 E2.35828
G1 X106.465 Y116.012 E2.44220
G1 X106.900 Y116.192 F7800.000
G1 X108.687 Y118.231 F7800.000
G1 X110.129 Y118.325 E2.53346 F1800.000
G1 X110.129 Y119.984 E2.63822
G1 X108.706 Y120.079 E2.72830
G1 X108.801 Y119.030 E2.79482
G1 X108.698 Y118.306 E2.84104
G1 X109.121 Y118.480 F7800.000
G1 E0.84104 F2400.00000
G92 E0
G1 X109.298 Y109.666 F7800.000
G1 X110.065 Y106.709 F7800.000
G1 X110.657 Y105.051 F7800.000
G1 X110.355 Y103.399 F7800.000
G1 X109.648 Y102.940 F7800.000
G1 X109.381 Y102.722 F7800.000
G1 X109.264 Y102.583 F7800.000
G1 E2.00000 F2400.00000
G1 X111.651 Y102.611 E2.15071 F1800.000
G1 X111.651 Y105.089 E2.30722
G1 X111.927 Y106.470 E2.39612
G1 X112.156 Y106.629 E2.41373
G1 X112.054 Y106.996 E2.43782
G1 X111.355 Y107.038 E2.48202
G1 X110.641 Y107.253 E2.52912
G1 X110.033 Y107.773 E2.57966
G1 X109.689 Y108.392 E2.62438
G1 X109.454 Y109.273 E2.68193
G1 X107.332 Y109.273 E2.81593
G1 X107.332 Y107.345 E2.93767
G1 X108.079 Y107.257 E2.98520
G1 X109.131 Y106.853 E3.05635
G1 X109.663 Y105.701 E3.13645
G1 X109.663 Y103.813 E3.25567
G1 X109.131 Y102.662 E3.33578
G1 X108.079 Y102.257 E3.40694
G1 X107.332 Y102.169 E3.45447
G1 X107.332 Y100.244 E3.57604
G1 X108.079 Y100.156 E3.62358
G1 X109.264 Y99.701 E3.70374
G1 X109.264 Y102.508 E3.88103
G1 X113.895 Y107.314 F7800.000
G1 X114.411 Y107.348 E3.91368 F1800.000
G1 X115.184 Y107.257 E3.96283
G1 X116.235 Y106.853 E4.03397
G1 X116.365 Y106.574 E4.05341
G1 X116.797 Y106.686 E4.08165
G1 X116.751 Y107.317 E4.12162
G1 X116.844 Y108.067 E4.16936
G1 X117.309 Y109.273 E4.25096
G1 X114.442 Y109.273 E4.43199
G1 X114.351 Y108.498 E4.48125
G1 X113.922 Y107.384 E4.55665
G1 X118.540 Y104.585 F7800.000
G1 X119.113 Y103.345 E4.64290 F1800.000
G1 X119.146 Y102.592 E4.69047
G1 X119.927 Y102.558 E4.73985
G1 X121.503 Y101.832 E4.84940
G1 X121.503 Y105.507 E5.08148
G1 X120.054 Y104.585 E5.18991
G1 X118.615 Y104.585 E5.28076
G1 X118.504 Y105.478 F7800.000
G1 X117.937 Y105.839 E5.32320 F1800.000
G1 X117.712 Y106.422 E5.36267
G1 X117.648 Y107.294 E5.41790
G1 X117.717 Y107.848 E5.45315
G1 X117.943 Y108.437 E5.49300
G1 X118.501 Y108.741 E5.53310
G1 X119.273 Y108.811 E5.58204
G1 X120.067 Y108.698 E5.63271
G1 X120.044 Y110.166 E5.72542
G1 X113.543 Y110.166 E6.13592
G1 X113.543 Y109.277 E6.19203
G1 X113.477 Y108.714 E6.22783
G1 X113.231 Y108.075 E6.27110
G1 X112.582 Y107.858 E6.31427
G1 X111.512 Y107.923 E6.38197
G1 X111.078 Y108.054 E6.41060
G1 X110.735 Y108.347 E6.43911
G1 X110.523 Y108.729 E6.46672
G1 X110.382 Y109.256 E6.50111
G1 X110.105 Y114.443 E6.82913
G1 X109.988 Y114.879 E6.85765
G1 X108.798 Y115.147 E6.93470
G1 X108.798 Y110.166 E7.24924
G1 X106.439 Y110.166 E7.39819
G1 X106.439 Y106.450 E7.63282
G1 X107.300 Y106.450 E7.68721
G1 X107.864 Y106.384 E7.72303
G1 X108.472 Y106.150 E7.76422
G1 X108.770 Y105.505 E7.80905
G1 X108.770 Y104.009 E7.90350
G1 X108.472 Y103.365 E7.94834
G1 X107.864 Y103.131 E7.98953
G1 X107.300 Y103.064 E8.02534
G1 X106.439 Y103.064 E8.07974
G1 X106.439 Y99.349 E8.31436
G1 X107.300 Y99.349 E8.36876
G1 X107.864 Y99.283 E8.40457
G1 X108.472 Y99.049 E8.44576
G1 X108.765 Y98.414 E8.48988
G1 X108.826 Y97.025 E8.57766
G1 X109.354 Y96.963 E8.61124
G1 X110.157 Y96.963 E8.66194
G1 X110.157 Y101.701 E8.96110
G1 X112.543 Y101.729 E9.11181
G1 X112.543 Y105.001 E9.31845
G1 X112.732 Y105.941 E9.37900
G1 X113.372 Y106.384 E9.42817
G1 X114.388 Y106.452 E9.49248
G1 X114.968 Y106.384 E9.52935
G1 X115.577 Y106.150 E9.57054
G1 X115.870 Y105.516 E9.61466
G1 X115.930 Y104.123 E9.70268
G1 X117.332 Y104.030 E9.79136
G1 X117.944 Y103.747 E9.83392
G1 X118.229 Y103.130 E9.87684
G1 X118.291 Y101.736 E9.96496
G1 X119.713 Y101.674 E10.05486
G1 X120.347 Y101.382 E10.09897
G1 X120.586 Y100.760 E10.14100
G1 X120.677 Y99.378 E10.22851
G1 X122.060 Y99.287 E10.31606
G1 X122.395 Y99.158 E10.33873
G1 X122.395 Y107.897 E10.89051
G1 X121.384 Y107.805 E10.95464
G1 X120.579 Y107.920 E11.00596
G1 X120.650 Y106.964 E11.06648
G1 X120.581 Y106.410 E11.10172
G1 X120.361 Y105.839 E11.14038
G1 X119.794 Y105.478 E11.18282
G1 X118.579 Y105.478 E11.25956
G1 X118.112 Y105.168 F7800.000
G1 E9.25956 F2400.00000
G92 E0
G1 X118.358 Y104.978 F7800.000
G1 X119.829 Y103.761 F7800.000
G1 X119.884 Y103.331 F7800.000
G1 X119.854 Y103.301 F7800.000
G1 X118.770 Y102.216 F7800.000
G1 X118.234 Y96.164 F7800.000
G1 E2.00000 F2400.00000
G1 X118.234 Y94.514 E2.10419 F1800.000
G1 X119.273 Y94.609 E2.17009
G1 X120.074 Y94.494 E2.22121
G1 X119.978 Y95.935 E2.31237
G1 X118.597 Y96.025 E2.39979
G1 X118.304 Y96.137 E2.41961
G1 X118.429 Y95.704 F7800.000
G1 X120.572 Y93.822 F7800.000
G1 X120.650 Y92.761 E2.48680 F1800.000
G1 X120.575 Y92.162 E2.52491
G1 X121.651 Y92.252 E2.59307
G1 X122.431 Y92.085 E2.64343
G1 X122.366 Y93.576 E2.73768
G1 X120.971 Y93.638 E2.82584
G1 X120.640 Y93.791 E2.84889
G1 X120.780 Y93.368 F7800.000
G1 E0.84889 F2400.00000
G92 E0
G1 X121.887 Y93.097 F7800.000
G1 X121.887 Y93.097 F7800.000
G1 X125.813 Y93.577 F7800.000
G1 E2.00000 F2400.00000
G1 X125.726 Y92.255 E2.08369 F1800.000
G1 X127.085 Y92.275 E2.16946
G1 X127.173 Y93.636 E2.25560
G1 X125.888 Y93.581 E2.33686
G1 X126.050 Y93.137 F7800.000
G1 X128.081 Y94.573 F7800.000
G1 X129.472 Y94.635 E2.42480 F1800.000
G1 X129.472 Y95.936 E2.50693
G1 X128.172 Y95.936 E2.58905
G1 X128.086 Y94.648 E2.67054
G1 X128.512 Y94.826 F7800.000
G1 E0.67054 F2400.00000
G92 E0
G1 X128.639 Y95.436 F7800.000
G1 X128.639 Y95.436 F7800.000
G1 X124.726 Y96.991 F7800.000
G1 E2.00000 F2400.00000
G1 X124.747 Y98.377 E2.08752 F1800.000
G1 X122.977 Y98.350 E2.19930
G1 X123.033 Y97.074 E2.27992
G1 X123.241 Y96.991 E2.29412
G1 X124.651 Y96.991 E2.38313
G1 X124.481 Y97.426 F7800.000
G1 E0.38313 F2400.00000
G92 E0
G1 X126.260 Y99.849 F7800.000
G1 X126.260 Y99.849 F7800.000
G1 X126.441 Y100.019 F7800.000
G1 X126.282 Y100.186 F7800.000
G1 X128.141 Y100.714 F7800.000
G1 E2.00000 F2400.00000
G1 X125.813 Y100.679 E2.14704 F1800.000
G1 X125.726 Y99.349 E2.23121
G1 X129.500 Y99.349 E2.46953
G1 X129.500 Y107.816 E3.00416
G1 X128.141 Y107.836 E3.08998
G1 X128.141 Y100.789 E3.53499
G1 X128.146 Y100.214 F7800.000
G1 X128.641 Y107.329 F7800.000
G1 X128.641 Y107.329 F7800.000
G1 X127.170 Y108.808 F7800.000
G1 X127.149 Y110.166 E3.62074 F1800.000
G1 X123.007 Y110.166 E3.88227
G1 X123.007 Y109.303 E3.93674
G1 X122.945 Y108.808 E3.96826
G1 X127.095 Y108.808 E4.23029
G1 X126.915 Y109.238 F7800.000
G1 E2.23029 F2400.00000
G92 E0
G1 X117.543 Y108.788 F7800.000
G1 X91.857 Y116.781 F7800.000
G1 X91.940 Y116.756 F7800.000
G1 E2.00000 F2400.00000
G1 X90.736 Y117.458 E2.08800 F1800.000
G1 X90.736 Y116.201 E2.16739
G1 X91.872 Y116.725 E2.24638
G1 X91.547 Y115.592 F7800.000
G1 X92.165 Y115.877 E2.28933 F1800.000
G1 X93.535 Y115.935 E2.37591
G1 X93.507 Y116.789 E2.42984
G1 X93.420 Y117.182 E2.45530
G1 X93.306 Y117.410 E2.47138
G1 X93.163 Y117.517 E2.48265
G1 X92.083 Y117.706 E2.55190
G1 X91.552 Y118.015 E2.59070
G1 X91.260 Y118.550 E2.62919
G1 X91.231 Y120.070 E2.72515
G1 X89.843 Y120.049 E2.81281
G1 X89.843 Y111.166 E3.37372
G1 X93.581 Y111.166 E3.60976
G1 X93.561 Y112.493 E3.69358
G1 X92.149 Y112.585 E3.78295
G1 X91.510 Y112.831 E3.82619
G1 X91.258 Y113.485 E3.87049
G1 X91.258 Y114.964 E3.96386
G1 X91.516 Y115.524 E4.00278
G1 X91.476 Y116.087 F7800.000
G1 E2.00278 F2400.00000
G92 E0
G1 X90.758 Y113.393 F7800.000
G1 X86.649 Y109.280 F7800.000
G1 X84.170 Y108.024 F7800.000
G1 E2.00000 F2400.00000
G1 X82.612 Y107.797 E2.09938 F1800.000
G1 X82.376 Y107.679 E2.11604
G1 X82.314 Y106.246 E2.20662
G1 X82.685 Y106.389 E2.23174
G1 X84.069 Y106.479 E2.31930
G1 X84.165 Y107.949 E2.41234
G1 X83.757 Y107.742 F7800.000
G1 X81.770 Y105.619 F7800.000
G1 X80.958 Y105.450 E2.46470 F1800.000
G1 X78.383 Y105.450 E2.62731
G1 X77.577 Y105.625 E2.67940
G1 X77.577 Y104.064 E2.77795
G1 X81.746 Y104.064 E3.04123
G1 X81.769 Y105.544 E3.13467
G1 X81.373 Y105.314 F7800.000
G1 E1.13467 F2400.00000
G92 E0
G1 X82.862 Y107.328 F7800.000
G1 X82.862 Y107.328 F7800.000
G1 X79.324 Y110.138 F7800.000
G1 E2.00000 F2400.00000
G1 X77.661 Y110.138 E2.10503 F1800.000
G1 X77.570 Y108.710 E2.19538
G1 X78.633 Y108.880 E2.26340
G1 X78.941 Y108.968 E2.28361
G1 X79.122 Y109.065 E2.29659
G1 X79.211 Y109.230 E2.30839
G1 X79.324 Y109.774 E2.34349
G1 X79.324 Y110.063 E2.36173
G1 X78.891 Y109.888 F7800.000
G1 X76.549 Y106.904 F7800.000
G1 X78.077 Y105.005 F7800.000
G1 X77.025 Y103.265 F7800.000
G1 X76.693 Y103.126 E2.38449 F1800.000
G1 X75.273 Y103.034 E2.47430
G1 X75.273 Y101.735 E2.55633
G1 X77.049 Y101.708 E2.66849
G1 X77.026 Y103.190 E2.76211
G1 X76.772 Y103.009 F7800.000
G1 E0.76211 F2400.00000
G92 E0
G1 X76.097 Y106.954 F7800.000
G1 X75.658 Y107.165 F7800.000
G1 X75.019 Y107.230 F7800.000
G1 X74.945 Y107.234 F7800.000
G1 X74.936 Y107.234 F7800.000
G1 X74.909 Y107.236 F7800.000
G1 E2.00000 F2400.00000
G1 X73.719 Y107.876 E2.08534 F1800.000
G1 X73.795 Y106.808 E2.15299
G1 X74.839 Y107.209 E2.22360
G1 X74.571 Y106.150 F7800.000
G1 X75.191 Y106.388 E2.26552 F1800.000
G1 X76.088 Y106.452 E2.32230
G1 X76.703 Y106.384 E2.36143
G1 X77.049 Y106.240 E2.38504
G1 X77.049 Y107.984 E2.49518
G1 X76.677 Y107.860 E2.51993
G1 X75.804 Y107.894 E2.57507
G1 X75.306 Y108.036 E2.60780
G1 X74.765 Y108.327 E2.64657
G1 X74.474 Y108.867 E2.68532
G1 X74.339 Y109.339 E2.71632
G1 X74.235 Y110.044 E2.76132
G1 X73.622 Y110.138 E2.80043
G1 X71.046 Y110.165 E2.96313
G1 X70.550 Y110.066 E2.99507
G1 X70.502 Y109.347 E3.04058
G1 X70.562 Y108.836 E3.07308
G1 X71.952 Y108.775 E3.16091
G1 X72.586 Y108.483 E3.20503
G1 X72.825 Y107.863 E3.24695
G1 X72.890 Y106.951 E3.30472
G1 X72.820 Y106.356 E3.34249
G1 X72.579 Y105.730 E3.38491
G1 X71.928 Y105.479 E3.42896
G1 X70.500 Y105.458 E3.51915
G1 X70.500 Y99.349 E3.90489
G1 X71.389 Y99.349 E3.96103
G1 X71.887 Y99.290 E3.99267
G1 X71.887 Y104.064 E4.29413
G1 X73.689 Y104.064 E4.40797
G1 X74.218 Y104.127 E4.44156
G1 X74.278 Y105.515 E4.52934
G1 X74.540 Y106.082 E4.56872
G1 X74.521 Y106.647 F7800.000
G1 E2.56872 F2400.00000
G92 E0
G1 X75.773 Y102.227 F7800.000
G1 X75.773 Y102.227 F7800.000
G1 X74.218 Y98.287 F7800.000
G1 E2.00000 F2400.00000
G1 X73.689 Y98.349 E2.03360 F1800.000
G1 X72.829 Y98.349 E2.08796
G1 X72.889 Y97.478 E2.14311
G1 X72.824 Y96.931 E2.17787
G1 X74.218 Y97.022 E2.26606
G1 X74.218 Y98.212 E2.34121
G1 X73.767 Y98.071 F7800.000
G1 X71.914 Y96.023 F7800.000
G1 X70.559 Y95.935 E2.42700 F1800.000
G1 X70.502 Y95.143 E2.47710
G1 X70.562 Y94.633 E2.50952
G1 X71.914 Y94.575 E2.59499
G1 X71.914 Y95.948 E2.68173
G1 X71.493 Y95.755 F7800.000
G1 E0.68173 F2400.00000
G92 E0
G1 X78.104 Y95.479 F7800.000
G1 X79.775 Y93.018 F7800.000
G1 X81.782 Y92.953 F7800.000
G1 X82.953 Y93.281 F7800.000
G1 X83.553 Y92.646 F7800.000
